flowes_shop/src/assets/image/icons/basket.svg

<svg width="28" height="29" viewBox="0 0 28 29" fill="none" xmlns="http://www.w3.org/2000/svg">
<g clip-path="url(#clip0_22221_371)">
<path d="M-1.875 1.5C-1.875 1.23478 -1.76964 0.98043 -1.58211 0.792893C-1.39457 0.605357 -1.14022 0.5 -0.875 0.5H2.125C2.34806 0.500062 2.5647 0.574701 2.74046 0.712049C2.91622 0.849398 3.04102 1.04157 3.095 1.258L3.905 4.5H27.125C27.2769 4.50004 27.4268 4.53469 27.5633 4.60131C27.6998 4.66792 27.8193 4.76477 27.9128 4.88448C28.0063 5.00419 28.0713 5.14363 28.1029 5.29222C28.1345 5.4408 28.1318 5.59462 28.095 5.742L25.095 17.742C25.041 17.9584 24.9162 18.1506 24.7405 18.288C24.5647 18.4253 24.3481 18.4999 24.125 18.5H6.125C5.90194 18.4999 5.6853 18.4253 5.50954 18.288C5.33378 18.1506 5.20898 17.9584 5.155 17.742L1.345 2.5H-0.875C-1.14022 2.5 -1.39457 2.39464 -1.58211 2.20711C-1.76964 2.01957 -1.875 1.76522 -1.875 1.5ZM4.405 6.5L6.905 16.5H23.345L25.845 6.5H4.405ZM8.125 22.5C7.59457 22.5 7.08586 22.7107 6.71079 23.0858C6.33571 23.4609 6.125 23.9696 6.125 24.5C6.125 25.0304 6.33571 25.5391 6.71079 25.9142C7.08586 26.2893 7.59457 26.5 8.125 26.5C8.65543 26.5 9.16414 26.2893 9.53921 25.9142C9.91429 25.5391 10.125 25.0304 10.125 24.5C10.125 23.9696 9.91429 23.4609 9.53921 23.0858C9.16414 22.7107 8.65543 22.5 8.125 22.5ZM4.125 24.5C4.125 23.4391 4.54643 22.4217 5.29657 21.6716C6.04672 20.9214 7.06413 20.5 8.125 20.5C9.18587 20.5 10.2033 20.9214 10.9534 21.6716C11.7036 22.4217 12.125 23.4391 12.125 24.5C12.125 25.5609 11.7036 26.5783 10.9534 27.3284C10.2033 28.0786 9.18587 28.5 8.125 28.5C7.06413 28.5 6.04672 28.0786 5.29657 27.3284C4.54643 26.5783 4.125 25.5609 4.125 24.5ZM22.125 22.5C21.5946 22.5 21.0859 22.7107 20.7108 23.0858C20.3357 23.4609 20.125 23.9696 20.125 24.5C20.125 25.0304 20.3357 25.5391 20.7108 25.9142C21.0859 26.2893 21.5946 26.5 22.125 26.5C22.6554 26.5 23.1641 26.2893 23.5392 25.9142C23.9143 25.5391 24.125 25.0304 24.125 24.5C24.125 23.9696 23.9143 23.4609 23.5392 23.0858C23.1641 22.7107 22.6554 22.5 22.125 22.5ZM18.125 24.5C18.125 23.4391 18.5464 22.4217 19.2966 21.6716C20.0467 20.9214 21.0641 20.5 22.125 20.5C23.1859 20.5 24.2033 20.9214 24.9534 21.6716C25.7036 22.4217 26.125 23.4391 26.125 24.5C26.125 25.5609 25.7036 26.5783 24.9534 27.3284C24.2033 28.0786 23.1859 28.5 22.125 28.5C21.0641 28.5 20.0467 28.0786 19.2966 27.3284C18.5464 26.5783 18.125 25.5609 18.125 24.5Z" fill="white"/>
</g>
<defs>
<clipPath id="clip0_22221_371">
<rect width="28" height="28" fill="white" transform="translate(0 0.5)"/>
</clipPath>
</defs>
</svg>

<svg width="28" height="29" fill="none" xmlns="http://www.w3.org/2000/svg"><g clip-path="url(#a)"><path d="M-1.875 1.5a1 1 0 0 1 1-1h3a1 1 0 0 1 .97.758l.81 3.242h23.22a1 1 0 0 1 .97 1.242l-3 12a1 1 0 0 1-.97.758h-18a1 1 0 0 1-.97-.758L1.345 2.5h-2.22a1 1 0 0 1-1-1Zm6.28 5 2.5 10h16.44l2.5-10H4.405Zm3.72 16a2 2 0 1 0 0 4 2 2 0 0 0 0-4Zm-4 2a4 4 0 1 1 8 0 4 4 0 0 1-8 0Zm18-2a2 2 0 1 0 0 4 2 2 0 0 0 0-4Zm-4 2a4 4 0 1 1 8 0 4 4 0 0 1-8 0Z" fill="#fff"/></g><defs><clipPath id="a"><path fill="#fff" transform="translate(0 .5)" d="M0 0h28v28H0z"/></clipPath></defs></svg>
